docs/images/icons/download.svg

<svg width="20.000000" height="20.000000" viewBox="0 0 20 20" fill="none" xmlns="http://www.w3.org/2000/svg" xmlns:xlink="http://www.w3.org/1999/xlink">
	<desc>
			Created with Pixso.
	</desc>
	<defs/>
	<path id="Vector" d="M17.5 12.5L12.5 17.4966L3.33502 17.5C3.11456 17.501 2.90283 17.4141 2.74622 17.2593C2.58966 17.104 2.5011 16.8931 2.5 16.6724L2.5 3.32764C2.5 2.87061 2.87085 2.5 3.32751 2.5L16.6725 2.5C17.1292 2.5 17.5 2.87988 17.5 3.33496L17.5 12.5ZM15.8333 4.1665L4.16669 4.1665L4.16669 15.8335L10.8333 15.8335L10.8333 11.6665C10.8334 11.4624 10.9083 11.2656 11.0439 11.1128C11.1796 10.9604 11.3665 10.8633 11.5692 10.8394L11.6667 10.8335L15.8333 10.8325L15.8333 4.1665ZM15.1425 12.499L12.5 12.5L12.5 15.1406L15.1425 12.499Z" fill="#BDBDC0" fill-opacity="1.000000" fill-rule="nonzero"/>
</svg>

<svg width="20" height="20" fill="none" xmlns="http://www.w3.org/2000/svg"><path d="m17.5 12.5-5 4.997-9.165.003a.833.833 0 0 1-.835-.828V3.328c0-.457.37-.828.828-.828h13.345c.456 0 .827.38.827.835V12.5Zm-1.667-8.334H4.167v11.668h6.666v-4.168a.835.835 0 0 1 .736-.827l.098-.005 4.166-.002V4.166Zm-.69 8.333L12.5 12.5v2.64l2.643-2.641Z" fill="#BDBDC0"/></svg>
